X: 9
T: Jenny Picking Cockles
R: reel
M: 4/4
L: 1/8
K: Dmix
Addc AGEF | GEcE dEcE | Addc AGEF | GEcE EDD2 |
Addc AGEF | GEcA d2cd | eddc AGEF | GEcE EDD2 :|
f2fd efed | ^cAAB cdeg | fedf ed^cd | eaag edde |
f2fd efed | ^cAAB =c3d | ecdc AGEF | GEcE EDD2 :|


Tune 1357	Setting 14708

